src/images/svg/deriv-x/derivx-logo.svg

<svg width="40" height="40" viewBox="0 0 40 40" fill="none" xmlns="http://www.w3.org/2000/svg">
<path d="M0 7.5C0 3.35786 3.35786 0 7.5 0H32.5C36.6421 0 40 3.35786 40 7.5V32.5C40 36.6421 36.6421 40 32.5 40H7.5C3.35786 40 0 36.6421 0 32.5V7.5Z" fill="#0E0E0E"/>
<g clip-path="url(#clip0_7468_25391)">
<path d="M26.0821 13.125H22.0121L25.2159 20L19.5875 26.875H23.6598L29.2859 20L26.0821 13.125Z" fill="white"/>
<path d="M31.3025 13.125H35.4209L30.5371 19.0329L29.0613 15.8635L31.3025 13.125Z" fill="white"/>
<path d="M28.8757 26.875L27.6015 24.1387L30.1957 20.9694L32.9479 26.875H28.8757Z" fill="white"/>
<path d="M7.96938 13.125L13.2333 20L4.79584 26.875H13.3237C14.5323 26.8752 15.7055 26.4626 16.6515 25.7104C17.5974 24.9581 18.2604 23.9074 18.5323 22.7298L19.2383 19.6713C19.4192 18.8878 19.4209 18.0736 19.2434 17.2894C19.0659 16.5052 18.7137 15.7711 18.2131 15.1419C17.7125 14.5127 17.0764 14.0045 16.3521 13.6553C15.6278 13.3061 14.8341 13.1248 14.03 13.125H7.96938Z" fill="url(#paint0_linear_7468_25391)"/>
<path d="M13.2333 20L9.48334 26.875H4.79584L13.2333 20Z" fill="#CC2E3D"/>
</g>
<defs>
<linearGradient id="paint0_linear_7468_25391" x1="14.0075" y1="10.7558" x2="11.2688" y2="28.0315" gradientUnits="userSpaceOnUse">
<stop stop-color="#FF6444"/>
<stop offset="1" stop-color="#FF444F"/>
</linearGradient>
<clipPath id="clip0_7468_25391">
<rect width="30.8333" height="15" fill="white" transform="translate(4.58752 12.5)"/>
</clipPath>
</defs>
</svg>

<svg width="40" height="40" fill="none" xmlns="http://www.w3.org/2000/svg"><path d="M0 7.5A7.5 7.5 0 0 1 7.5 0h25A7.5 7.5 0 0 1 40 7.5v25a7.5 7.5 0 0 1-7.5 7.5h-25A7.5 7.5 0 0 1 0 32.5v-25Z" fill="#0E0E0E"/><g clip-path="url(#a)"><path d="M26.082 13.125h-4.07L25.216 20l-5.629 6.875h4.073L29.286 20l-3.204-6.875ZM31.302 13.125h4.119l-4.884 5.908-1.476-3.17 2.241-2.738ZM28.876 26.875l-1.274-2.736 2.594-3.17 2.752 5.906h-4.072Z" fill="#fff"/><path d="M7.97 13.125 13.232 20l-8.437 6.875h8.528a5.349 5.349 0 0 0 5.208-4.145l.706-3.059a5.344 5.344 0 0 0-5.208-6.546H7.97Z" fill="url(#b)"/><path d="m13.233 20-3.75 6.875H4.796L13.233 20Z" fill="#CC2E3D"/></g><defs><linearGradient id="b" x1="14.008" y1="10.756" x2="11.269" y2="28.032" gradientUnits="userSpaceOnUse"><stop stop-color="#FF6444"/><stop offset="1" stop-color="#FF444F"/></linearGradient><clipPath id="a"><path fill="#fff" transform="translate(4.588 12.5)" d="M0 0h30.833v15H0z"/></clipPath></defs></svg>
